X: 13726
T: Forde's
R: polka
M: 2/4
K: Dmixolydian
|:AD FA|d^c AB|c2 cE|EF GB|
AD FA|d^c AB|c2 cE|1 ED DF:|2 ED De||
|:fg/f/ ed|^cA Ae|fd ef|ab/a/ ge|
fg/f/ ed|^cA AB|c2 cE|1 ED De:|2 ED DF||

